src/distro-icons/fedora.svg

<svg width="512" height="512" fill="none" xmlns="http://www.w3.org/2000/svg">
<circle cx="253.5" cy="253.5" r="248.5" fill="#fff"/>
<path d="M256.135 5C114.761 5 .295 117.283.045 255.907H0v194.228h.045c.068 31.438 26.084 56.904 58.17 56.904H256.16C397.56 506.95 512 394.681 512 256.132 512 117.508 397.41 5.225 255.91 5.225l.225-.225Zm52.018 103.316c42.991 0 83.58 32.263 83.58 76.772 0 4.128.025 8.259-.664 12.94-1.191 11.841-12.232 20.35-24.253 18.681-12.022-1.689-20.18-12.878-17.957-24.584.204-1.336.277-3.433.277-7.04 0-25.24-21.07-34.987-40.99-34.987-19.914 0-37.863 16.414-37.888 34.987.344 21.475 0 42.785 0 64.227l36.963-.271c28.86-.586 29.185 42.009.333 41.809l-37.288.271c-.09 17.274.136 14.15.045 22.849 0 0 .313 21.127-.33 37.136-4.462 47.033-45.316 84.619-94.409 84.619-52.043 0-94.908-41.684-94.908-92.815 1.563-52.581 44.341-93.941 98.235-93.466l30.06-.222v41.735l-30.06.27h-.159c-29.61.859-54.994 20.573-55.47 51.656 0 28.315 23.344 51.006 52.319 51.006 28.935 0 52.093-20.635 52.093-50.956l-.045-158.066c.015-2.934.113-5.266.442-8.502 4.884-38.661 40.164-68.125 80.103-68.125l-.029.076Z" fill="#51A2DA"/>
</svg>

<svg width="512" height="512" viewBox="0 0 512 512" fill="none" xmlns="http://www.w3.org/2000/svg">
<circle cx="253.5" cy="253.5" r="248.5" fill="white"/>
<path d="M256.135 5C114.761 5 0.295329 117.283 0.0452409 255.907H0V450.135H0.0452409C0.11309 481.573 26.1294 507.039 58.2157 507.039H256.16C397.56 506.95 512 394.681 512 256.132C512 117.508 397.41 5.22492 255.91 5.22492L256.135 5ZM308.153 108.316C351.144 108.316 391.733 140.579 391.733 185.088C391.733 189.216 391.758 193.347 391.069 198.028C389.878 209.869 378.837 218.378 366.816 216.709C354.794 215.02 346.636 203.831 348.859 192.125C349.063 190.789 349.136 188.692 349.136 185.085C349.136 159.845 328.066 150.098 308.146 150.098C288.232 150.098 270.283 166.512 270.258 185.085C270.602 206.56 270.258 227.87 270.258 249.312L307.221 249.041C336.081 248.455 336.406 291.05 307.554 290.85L270.266 291.121C270.176 308.395 270.402 305.271 270.311 313.97C270.311 313.97 270.624 335.097 269.981 351.106C265.519 398.139 224.665 435.725 175.572 435.725C123.529 435.725 80.664 394.041 80.664 342.91C82.2266 290.329 125.005 248.969 178.899 249.444L208.959 249.222V290.957L178.899 291.227H178.74C149.13 292.086 123.746 311.8 123.27 342.883C123.27 371.198 146.614 393.889 175.589 393.889C204.524 393.889 227.682 373.254 227.682 342.933L227.637 184.867C227.652 181.933 227.75 179.601 228.079 176.365C232.963 137.704 268.243 108.24 308.182 108.24L308.153 108.316Z" fill="#51A2DA"/>
</svg>
